public/icon_goto.svg

<svg fill="none" height="24" viewBox="0 0 24 24" width="24" xmlns="http://www.w3.org/2000/svg"><path d="m12.3672 23.7109c6.2109 0 11.3555-5.1445 11.3555-11.3554 0-6.21097-5.1563-11.3555-11.3672-11.3555-6.21097 0-11.3555 5.14453-11.3555 11.3555 0 6.2109 5.15625 11.3554 11.3672 11.3554zm0-2.0156c-5.1797 0-9.32814-4.1601-9.32814-9.3398 0-5.17972 4.13672-9.33988 9.31644-9.33988 5.1797 0 9.3398 4.16016 9.3515 9.33988.0118 5.1797-4.1601 9.3398-9.3398 9.3398zm-2.51954-3.8555c.30464.293.90234.2696 1.23044-.0351l4.5703-4.3125c.6446-.5977.6446-1.6406 0-2.2383l-4.5703-4.31249c-.3633-.32813-.8906-.35157-1.21872-.03516-.36329.33984-.375.91406-.02344 1.24219l4.49996 4.21876-4.49996 4.2305c-.33985.3281-.35156.8906.01172 1.2421z" fill="#2c3852" fill-opacity=".6"/></svg>

<svg width="24" height="24" viewBox="0 0 24 24" fill="none" xmlns="http://www.w3.org/2000/svg">
<path d="M12.3672 23.7109C18.5781 23.7109 23.7227 18.5664 23.7227 12.3555C23.7227 6.14453 18.5664 1 12.3555 1C6.14453 1 1 6.14453 1 12.3555C1 18.5664 6.15625 23.7109 12.3672 23.7109ZM12.3672 21.6953C7.1875 21.6953 3.03906 17.5352 3.03906 12.3555C3.03906 7.17578 7.17578 3.01562 12.3555 3.01562C17.5352 3.01562 21.6953 7.17578 21.707 12.3555C21.7188 17.5352 17.5469 21.6953 12.3672 21.6953ZM9.84766 17.8398C10.1523 18.1328 10.75 18.1094 11.0781 17.8047L15.6484 13.4922C16.293 12.8945 16.293 11.8516 15.6484 11.2539L11.0781 6.94141C10.7148 6.61328 10.1875 6.58984 9.85938 6.90625C9.49609 7.24609 9.48438 7.82031 9.83594 8.14844L14.3359 12.3672L9.83594 16.5977C9.49609 16.9258 9.48438 17.4883 9.84766 17.8398Z" fill="#2C3852" fill-opacity="0.6"/>
</svg>
